www/assets/icons/flood.svg

<svg xmlns="http://www.w3.org/2000/svg" width="24" height="24" viewBox="0 0 24 24" fill='currentColor'><path d="M18.67 19c-1.95 0-2.09 1-3.33 1-1.19 0-1.42-1-3.33-1-1.95 0-2.1 1-3.34 1s-1.38-1-3.33-1-2.1 1-3.34 1v2c1.95 0 2.11-1 3.34-1 1.24 0 1.38 1 3.33 1s2.1-1 3.34-1c1.22 0 1.4 1 3.33 1s2.1-1 3.33-1c1.22 0 1.4 1 3.33 1v-2c-1.24 0-1.38-1-3.33-1m-9.99-1.5c1.95 0 2.09-1 3.33-1 1.19 0 1.42 1 3.33 1 1.95 0 2.09-1 3.33-1 1.19 0 1.4.98 3.31 1v-2c-.63 0-1-.28-1.48-.55l-2.02-7.53 2.09.85.74-1.86L9.78 2 2 11.61l1.57 1.23 1.39-1.78.93 3.48c-.18-.02-.35-.05-.56-.05-1.95 0-2.09 1-3.33 1v2c1.9 0 2.17-1 3.35-1 1.19.01 1.42 1.01 3.33 1.01m5.36-7.32 1.42 5.31c-1.34.09-1.47-.99-3.47-.99-.36 0-.65.04-.91.1l-.91-3.39z"/></svg>

<svg width="24" height="24" viewBox="0 0 24 24" xmlns="http://www.w3.org/2000/svg" fill='currentColor'><path d="M18.67 19C16.72 19 16.58 20 15.34 20C14.15 20 13.92 19 12.01 19C10.06 19 9.91 20 8.67 20C7.43 20 7.29 19 5.34 19C3.39 19 3.24 20 2 20V22C3.95 22 4.11 21 5.34 21C6.58 21 6.72 22 8.67 22C10.62 22 10.77 21 12.01 21C13.23 21 13.41 22 15.34 22C17.27 22 17.44 21 18.67 21C19.89 21 20.07 22 22 22V20C20.76 20 20.62 19 18.67 19Z"/><path d="M8.68 17.5C10.63 17.5 10.77 16.5 12.01 16.5C13.2 16.5 13.43 17.5 15.34 17.5C17.29 17.5 17.43 16.5 18.67 16.5C19.86 16.5 20.07 17.48 21.98 17.5V15.5C21.35 15.5 20.98 15.22 20.5 14.95L18.48 7.42L20.57 8.27L21.31 6.41L9.78 2L2 11.61L3.57 12.84L4.96 11.06L5.89 14.54C5.71 14.52 5.54 14.49 5.33 14.49C3.38 14.49 3.24 15.49 2 15.49V17.49C3.9 17.49 4.17 16.49 5.35 16.49C6.54 16.5 6.77 17.5 8.68 17.5ZM14.04 10.18L15.46 15.49C14.12 15.58 13.99 14.5 11.99 14.5C11.63 14.5 11.34 14.54 11.08 14.6L10.17 11.21L14.04 10.18Z"/></svg>
